static/stripes2.svg

<svg height="55" viewBox="0 0 1440 55" width="1440" xmlns="http://www.w3.org/2000/svg"><g fill="#fff" fill-rule="evenodd" opacity=".078261" transform="translate(-414)"><path d="m739.737974 54.1745095h-17.737974l31.05964-53.79687497h17.737974zm69 0h-17.737974l31.05964-53.79687497h17.737974zm-34 0h-17.737974l31.05964-53.79687497h17.737974zm68 0h-17.737974l31.05964-53.79687497h17.737974zm69 0h-17.737974l31.05964-53.79687497h17.737974zm34 0h-17.737974l31.05964-53.79687497h17.737974zm34 0h-17.737974l31.05964-53.79687497h17.73797zm33.999996 0h-17.73797l31.05964-53.79687497h17.73797zm-136.999996 0h-17.737974l31.05964-53.79687497h17.737974zm-448 0h-17.737974l31.05964-53.79687497h17.737974zm70.536082-.3776345h-17.737973l31.05964-53.796875h17.737973zm-34.536082.3776345h-17.737974l31.05964-53.79687497h17.737974zm68.804123-.3776345h-17.737973l31.05964-53.796875h17.737974zm68.536083 0h-17.737974l31.059641-53.796875h17.737973zm34.3965 0h-17.737973l31.05964-53.796875h17.737974zm34 0h-17.737973l31.05964-53.796875h17.737974zm34 0h-17.737973l31.05964-53.796875h17.737974zm-136.664541 0h-17.737974l31.05964-53.796875h17.737974zm792.664541 0h-17.73797l31.05964-53.796875h17.73797zm34 0h-17.73797l31.05964-53.796875h17.73797zm34 0h-17.73797l31.05964-53.796875h17.73797zm34 0h-17.73797l31.05964-53.796875h17.73797zm34 0h-17.73797l31.05964-53.796875h17.73797zm-1376.736706 0h-17.737974l31.05964-53.796875h17.737974zm-34.0000004 0h-17.7379736l31.0596403-53.796875h17.7379737zm-34 0h-17.7379736l31.0596403-53.796875h17.7379736zm-34 0h-17.7379736l31.0596403-53.796875h17.7379736zm170.5360824 0h-17.737973l31.05964-53.796875h17.737973zm-34.268041 0h-17.737974l31.059641-53.796875h17.737973zm68.536082 0h-17.737973l31.05964-53.796875h17.737974zm68.536083 0h-17.737974l31.059641-53.796875h17.737973zm34.3965 0h-17.737973l31.05964-53.796875h17.737974zm34 0h-17.737973l31.05964-53.796875h17.737974zm34 0h-17.737973l31.05964-53.796875h17.737974zm-136.664541 0h-17.737974l31.05964-53.796875h17.737974zm861.927831.3776345h-17.73797l31.05964-53.79687497h17.73797zm-35 0h-17.73797l31.05964-53.79687497h17.73797zm-34 0h-17.73797l31.05964-53.79687497h17.73797zm138 0h-17.73797l31.05964-53.79687497h17.73797zm-34 0h-17.73797l31.05964-53.79687497h17.73797zm68 0h-17.73797l31.05964-53.79687497h17.73797zm69 0h-17.73797l31.05964-53.79687497h17.73797zm34 0h-17.73797l31.05964-53.79687497h17.73797zm-69 0h-17.73797l31.05964-53.79687497h17.73797z"/><path d="m2252.73797 54.1745095h-17.73797l31.05964-53.79687497h17.73797zm69 0h-17.73797l31.05964-53.79687497h17.73797zm-34 0h-17.73797l31.05964-53.79687497h17.73797zm68 0h-17.73797l31.05964-53.79687497h17.73797zm69 0h-17.73797l31.05964-53.79687497h17.73797zm34 0h-17.73797l31.05964-53.79687497h17.73797zm34 0h-17.73797l31.05964-53.79687497h17.73797zm34 0h-17.73797l31.05964-53.79687497h17.73797zm-137 0h-17.73797l31.05964-53.79687497h17.73797zm-448 0h-17.73797l31.05964-53.79687497h17.73797zm70.53609-.3776345h-17.73798l31.05964-53.796875h17.73798zm-34.53609.3776345h-17.73797l31.05964-53.79687497h17.73797zm68.80413-.3776345h-17.73798l31.05964-53.796875h17.73798zm68.53608 0h-17.73797l31.05964-53.796875h17.73797zm34.3965 0h-17.73797l31.05964-53.796875h17.73797zm34 0h-17.73797l31.05964-53.796875h17.73797zm34 0h-17.73797l31.05964-53.796875h17.73797zm-136.66454 0h-17.73797l31.05964-53.796875h17.73797zm792.66454 0h-17.73797l31.05964-53.796875h17.73797zm34 0h-17.73797l31.05964-53.796875h17.73797zm34 0h-17.73797l31.05964-53.796875h17.73797zm34 0h-17.73797l31.05964-53.796875h17.73797zm34 0h-17.73797l31.05964-53.796875h17.73797zm-1376.73671 0h-17.73797l31.05964-53.796875h17.73797zm-34 0h-17.73797l31.05964-53.796875h17.73797zm-34 0h-17.73797l31.05964-53.796875h17.73797zm-34 0h-17.73797l31.05964-53.796875h17.73797zm170.53609 0h-17.73798l31.05964-53.796875h17.73798zm-34.26805 0h-17.73797l31.05964-53.796875h17.73798zm68.53609 0h-17.73798l31.05964-53.796875h17.73798zm68.53608 0h-17.73797l31.05964-53.796875h17.73797zm34.3965 0h-17.73797l31.05964-53.796875h17.73797zm34 0h-17.73797l31.05964-53.796875h17.73797zm34 0h-17.73797l31.05964-53.796875h17.73797zm-136.66454 0h-17.73797l31.05964-53.796875h17.73797zm861.92783.3776345h-17.73797l31.05964-53.79687497h17.73797zm-35 0h-17.73797l31.05964-53.79687497h17.73797zm-34 0h-17.73797l31.05964-53.79687497h17.73797zm138 0h-17.73797l31.05964-53.79687497h17.73797zm-34 0h-17.73797l31.05964-53.79687497h17.73797zm68 0h-17.73797l31.05964-53.79687497h17.73797zm69 0h-17.73797l31.05964-53.79687497h17.73797zm34 0h-17.73797l31.05964-53.79687497h17.73797zm-69 0h-17.73797l31.05964-53.79687497h17.73797z"/></g></svg>

<?xml version="1.0" encoding="UTF-8"?>
<svg width="1440px" height="55px" viewBox="0 0 1440 55" version="1.1" xmlns="http://www.w3.org/2000/svg" xmlns:xlink="http://www.w3.org/1999/xlink">
    <!-- Generator: Sketch 42 (36781) - http://www.bohemiancoding.com/sketch -->
    <title>Group 2</title>
    <desc>Created with Sketch.</desc>
    <defs></defs>
    <g id="Gedankenwerk" stroke="none" stroke-width="1" fill="none" fill-rule="evenodd" opacity="0.0782608711">
        <g transform="translate(0.000000, -1027.000000)" id="Unsere-Arbeit" fill="#FFFFFF">
            <g transform="translate(-414.000000, 1027.000000)">
                <g id="Group-2">
                    <path d="M739.737974,54.1745095 L722,54.1745095 L753.05964,0.377634533 L770.797614,0.377634533 L739.737974,54.1745095 L739.737974,54.1745095 Z M808.737974,54.1745095 L791,54.1745095 L822.05964,0.377634533 L839.797614,0.377634533 L808.737974,54.1745095 Z M774.737974,54.1745095 L757,54.1745095 L788.05964,0.377634533 L805.797614,0.377634533 L774.737974,54.1745095 L774.737974,54.1745095 Z M842.737974,54.1745095 L825,54.1745095 L856.05964,0.377634533 L873.797614,0.377634533 L842.737974,54.1745095 L842.737974,54.1745095 Z M911.737974,54.1745095 L894,54.1745095 L925.05964,0.377634533 L942.797614,0.377634533 L911.737974,54.1745095 L911.737974,54.1745095 Z M945.737974,54.1745095 L928,54.1745095 L959.05964,0.377634533 L976.797614,0.377634533 L945.737974,54.1745095 L945.737974,54.1745095 Z M979.737974,54.1745095 L962,54.1745095 L993.05964,0.377634533 L1010.79761,0.377634533 L979.737974,54.1745095 L979.737974,54.1745095 Z M1013.73797,54.1745095 L996,54.1745095 L1027.05964,0.377634533 L1044.79761,0.377634533 L1013.73797,54.1745095 L1013.73797,54.1745095 Z M876.737974,54.1745095 L859,54.1745095 L890.05964,0.377634533 L907.797614,0.377634533 L876.737974,54.1745095 Z M428.737974,54.1745095 L411,54.1745095 L442.05964,0.377634533 L459.797614,0.377634533 L428.737974,54.1745095 L428.737974,54.1745095 Z M499.274056,53.796875 L481.536083,53.796875 L512.595723,0 L530.333696,0 L499.274056,53.796875 L499.274056,53.796875 Z M464.737974,54.1745095 L447,54.1745095 L478.05964,0.377634533 L495.797614,0.377634533 L464.737974,54.1745095 L464.737974,54.1745095 Z M533.542097,53.796875 L515.804124,53.796875 L546.863764,0 L564.601738,0 L533.542097,53.796875 L533.542097,53.796875 Z M602.07818,53.796875 L584.340206,53.796875 L615.399847,0 L633.13782,0 L602.07818,53.796875 L602.07818,53.796875 Z M636.47468,53.796875 L618.736707,53.796875 L649.796347,0 L667.534321,0 L636.47468,53.796875 L636.47468,53.796875 Z M670.47468,53.796875 L652.736707,53.796875 L683.796347,0 L701.534321,0 L670.47468,53.796875 Z M704.47468,53.796875 L686.736707,53.796875 L717.796347,0 L735.534321,0 L704.47468,53.796875 L704.47468,53.796875 Z M567.810139,53.796875 L550.072165,53.796875 L581.131805,0 L598.869779,0 L567.810139,53.796875 L567.810139,53.796875 Z M1360.47468,53.796875 L1342.73671,53.796875 L1373.79635,0 L1391.53432,2.27373675e-13 L1360.47468,53.796875 L1360.47468,53.796875 Z M1394.47468,53.796875 L1376.73671,53.796875 L1407.79635,0 L1425.53432,2.27373675e-13 L1394.47468,53.796875 L1394.47468,53.796875 Z M1428.47468,53.796875 L1410.73671,53.796875 L1441.79635,0 L1459.53432,2.27373675e-13 L1428.47468,53.796875 L1428.47468,53.796875 Z M1462.47468,53.796875 L1444.73671,53.796875 L1475.79635,0 L1493.53432,2.27373675e-13 L1462.47468,53.796875 L1462.47468,53.796875 Z M1496.47468,53.796875 L1478.73671,53.796875 L1509.79635,0 L1527.53432,2.27373675e-13 L1496.47468,53.796875 L1496.47468,53.796875 Z M119.737974,53.796875 L102,53.796875 L133.05964,0 L150.797614,0 L119.737974,53.796875 L119.737974,53.796875 Z M85.7379736,53.796875 L68,53.796875 L99.0596403,0 L116.797614,0 L85.7379736,53.796875 L85.7379736,53.796875 Z M51.7379736,53.796875 L34,53.796875 L65.0596403,0 L82.7976139,0 L51.7379736,53.796875 L51.7379736,53.796875 Z M17.7379736,53.796875 L0,53.796875 L31.0596403,0 L48.7976139,0 L17.7379736,53.796875 L17.7379736,53.796875 Z M188.274056,53.796875 L170.536083,53.796875 L201.595723,0 L219.333696,0 L188.274056,53.796875 Z M154.006015,53.796875 L136.268041,53.796875 L167.327682,0 L185.065655,0 L154.006015,53.796875 L154.006015,53.796875 Z M222.542097,53.796875 L204.804124,53.796875 L235.863764,0 L253.601738,0 L222.542097,53.796875 L222.542097,53.796875 Z M291.07818,53.796875 L273.340206,53.796875 L304.399847,0 L322.13782,0 L291.07818,53.796875 L291.07818,53.796875 Z M325.47468,53.796875 L307.736707,53.796875 L338.796347,0 L356.534321,0 L325.47468,53.796875 L325.47468,53.796875 Z M359.47468,53.796875 L341.736707,53.796875 L372.796347,0 L390.534321,0 L359.47468,53.796875 Z M393.47468,53.796875 L375.736707,53.796875 L406.796347,0 L424.534321,0 L393.47468,53.796875 Z M256.810139,53.796875 L239.072165,53.796875 L270.131805,0 L287.869779,0 L256.810139,53.796875 L256.810139,53.796875 Z M1118.73797,54.1745095 L1101,54.1745095 L1132.05964,0.377634533 L1149.79761,0.377634533 L1118.73797,54.1745095 Z M1083.73797,54.1745095 L1066,54.1745095 L1097.05964,0.377634533 L1114.79761,0.377634533 L1083.73797,54.1745095 L1083.73797,54.1745095 Z M1049.73797,54.1745095 L1032,54.1745095 L1063.05964,0.377634533 L1080.79761,0.377634533 L1049.73797,54.1745095 L1049.73797,54.1745095 Z M1187.73797,54.1745095 L1170,54.1745095 L1201.05964,0.377634533 L1218.79761,0.377634533 L1187.73797,54.1745095 L1187.73797,54.1745095 Z M1153.73797,54.1745095 L1136,54.1745095 L1167.05964,0.377634533 L1184.79761,0.377634533 L1153.73797,54.1745095 L1153.73797,54.1745095 Z M1221.73797,54.1745095 L1204,54.1745095 L1235.05964,0.377634533 L1252.79761,0.377634533 L1221.73797,54.1745095 L1221.73797,54.1745095 Z M1290.73797,54.1745095 L1273,54.1745095 L1304.05964,0.377634533 L1321.79761,0.377634533 L1290.73797,54.1745095 L1290.73797,54.1745095 Z M1324.73797,54.1745095 L1307,54.1745095 L1338.05964,0.377634533 L1355.79761,0.377634533 L1324.73797,54.1745095 L1324.73797,54.1745095 Z M1255.73797,54.1745095 L1238,54.1745095 L1269.05964,0.377634533 L1286.79761,0.377634533 L1255.73797,54.1745095 L1255.73797,54.1745095 Z" id="Stripes"></path>
                    <path d="M2252.73797,54.1745095 L2235,54.1745095 L2266.05964,0.377634533 L2283.79761,0.377634533 L2252.73797,54.1745095 L2252.73797,54.1745095 Z M2321.73797,54.1745095 L2304,54.1745095 L2335.05964,0.377634533 L2352.79761,0.377634533 L2321.73797,54.1745095 Z M2287.73797,54.1745095 L2270,54.1745095 L2301.05964,0.377634533 L2318.79761,0.377634533 L2287.73797,54.1745095 L2287.73797,54.1745095 Z M2355.73797,54.1745095 L2338,54.1745095 L2369.05964,0.377634533 L2386.79761,0.377634533 L2355.73797,54.1745095 L2355.73797,54.1745095 Z M2424.73797,54.1745095 L2407,54.1745095 L2438.05964,0.377634533 L2455.79761,0.377634533 L2424.73797,54.1745095 L2424.73797,54.1745095 Z M2458.73797,54.1745095 L2441,54.1745095 L2472.05964,0.377634533 L2489.79761,0.377634533 L2458.73797,54.1745095 L2458.73797,54.1745095 Z M2492.73797,54.1745095 L2475,54.1745095 L2506.05964,0.377634533 L2523.79761,0.377634533 L2492.73797,54.1745095 L2492.73797,54.1745095 Z M2526.73797,54.1745095 L2509,54.1745095 L2540.05964,0.377634533 L2557.79761,0.377634533 L2526.73797,54.1745095 L2526.73797,54.1745095 Z M2389.73797,54.1745095 L2372,54.1745095 L2403.05964,0.377634533 L2420.79761,0.377634533 L2389.73797,54.1745095 Z M1941.73797,54.1745095 L1924,54.1745095 L1955.05964,0.377634533 L1972.79761,0.377634533 L1941.73797,54.1745095 L1941.73797,54.1745095 Z M2012.27406,53.796875 L1994.53608,53.796875 L2025.59572,0 L2043.3337,0 L2012.27406,53.796875 L2012.27406,53.796875 Z M1977.73797,54.1745095 L1960,54.1745095 L1991.05964,0.377634533 L2008.79761,0.377634533 L1977.73797,54.1745095 L1977.73797,54.1745095 Z M2046.5421,53.796875 L2028.80412,53.796875 L2059.86376,0 L2077.60174,0 L2046.5421,53.796875 L2046.5421,53.796875 Z M2115.07818,53.796875 L2097.34021,53.796875 L2128.39985,0 L2146.13782,0 L2115.07818,53.796875 L2115.07818,53.796875 Z M2149.47468,53.796875 L2131.73671,53.796875 L2162.79635,0 L2180.53432,0 L2149.47468,53.796875 L2149.47468,53.796875 Z M2183.47468,53.796875 L2165.73671,53.796875 L2196.79635,0 L2214.53432,0 L2183.47468,53.796875 Z M2217.47468,53.796875 L2199.73671,53.796875 L2230.79635,0 L2248.53432,0 L2217.47468,53.796875 L2217.47468,53.796875 Z M2080.81014,53.796875 L2063.07217,53.796875 L2094.13181,0 L2111.86978,0 L2080.81014,53.796875 L2080.81014,53.796875 Z M2873.47468,53.796875 L2855.73671,53.796875 L2886.79635,0 L2904.53432,2.27373675e-13 L2873.47468,53.796875 L2873.47468,53.796875 Z M2907.47468,53.796875 L2889.73671,53.796875 L2920.79635,0 L2938.53432,2.27373675e-13 L2907.47468,53.796875 L2907.47468,53.796875 Z M2941.47468,53.796875 L2923.73671,53.796875 L2954.79635,0 L2972.53432,2.27373675e-13 L2941.47468,53.796875 L2941.47468,53.796875 Z M2975.47468,53.796875 L2957.73671,53.796875 L2988.79635,0 L3006.53432,2.27373675e-13 L2975.47468,53.796875 L2975.47468,53.796875 Z M3009.47468,53.796875 L2991.73671,53.796875 L3022.79635,0 L3040.53432,2.27373675e-13 L3009.47468,53.796875 L3009.47468,53.796875 Z M1632.73797,53.796875 L1615,53.796875 L1646.05964,0 L1663.79761,0 L1632.73797,53.796875 L1632.73797,53.796875 Z M1598.73797,53.796875 L1581,53.796875 L1612.05964,0 L1629.79761,0 L1598.73797,53.796875 L1598.73797,53.796875 Z M1564.73797,53.796875 L1547,53.796875 L1578.05964,0 L1595.79761,0 L1564.73797,53.796875 L1564.73797,53.796875 Z M1530.73797,53.796875 L1513,53.796875 L1544.05964,0 L1561.79761,0 L1530.73797,53.796875 L1530.73797,53.796875 Z M1701.27406,53.796875 L1683.53608,53.796875 L1714.59572,0 L1732.3337,0 L1701.27406,53.796875 Z M1667.00601,53.796875 L1649.26804,53.796875 L1680.32768,0 L1698.06566,0 L1667.00601,53.796875 L1667.00601,53.796875 Z M1735.5421,53.796875 L1717.80412,53.796875 L1748.86376,0 L1766.60174,0 L1735.5421,53.796875 L1735.5421,53.796875 Z M1804.07818,53.796875 L1786.34021,53.796875 L1817.39985,0 L1835.13782,0 L1804.07818,53.796875 L1804.07818,53.796875 Z M1838.47468,53.796875 L1820.73671,53.796875 L1851.79635,0 L1869.53432,0 L1838.47468,53.796875 L1838.47468,53.796875 Z M1872.47468,53.796875 L1854.73671,53.796875 L1885.79635,0 L1903.53432,0 L1872.47468,53.796875 Z M1906.47468,53.796875 L1888.73671,53.796875 L1919.79635,0 L1937.53432,0 L1906.47468,53.796875 Z M1769.81014,53.796875 L1752.07217,53.796875 L1783.13181,0 L1800.86978,0 L1769.81014,53.796875 L1769.81014,53.796875 Z M2631.73797,54.1745095 L2614,54.1745095 L2645.05964,0.377634533 L2662.79761,0.377634533 L2631.73797,54.1745095 Z M2596.73797,54.1745095 L2579,54.1745095 L2610.05964,0.377634533 L2627.79761,0.377634533 L2596.73797,54.1745095 L2596.73797,54.1745095 Z M2562.73797,54.1745095 L2545,54.1745095 L2576.05964,0.377634533 L2593.79761,0.377634533 L2562.73797,54.1745095 L2562.73797,54.1745095 Z M2700.73797,54.1745095 L2683,54.1745095 L2714.05964,0.377634533 L2731.79761,0.377634533 L2700.73797,54.1745095 L2700.73797,54.1745095 Z M2666.73797,54.1745095 L2649,54.1745095 L2680.05964,0.377634533 L2697.79761,0.377634533 L2666.73797,54.1745095 L2666.73797,54.1745095 Z M2734.73797,54.1745095 L2717,54.1745095 L2748.05964,0.377634533 L2765.79761,0.377634533 L2734.73797,54.1745095 L2734.73797,54.1745095 Z M2803.73797,54.1745095 L2786,54.1745095 L2817.05964,0.377634533 L2834.79761,0.377634533 L2803.73797,54.1745095 L2803.73797,54.1745095 Z M2837.73797,54.1745095 L2820,54.1745095 L2851.05964,0.377634533 L2868.79761,0.377634533 L2837.73797,54.1745095 L2837.73797,54.1745095 Z M2768.73797,54.1745095 L2751,54.1745095 L2782.05964,0.377634533 L2799.79761,0.377634533 L2768.73797,54.1745095 L2768.73797,54.1745095 Z" id="Stripes-Copy"></path>
                </g>
            </g>
        </g>
    </g>
</svg>
